!!!OTL: Braver Entschluss.
!!!OTL-incipit: ES DUNKELT IN DEM WALDE
!!!ARE: Europa, Mitteleuropa, Deutschland; Elsass
!!!SCT: Z1042
!!!TXL: @@DE
!!!YEM: Copyright 1995, estate of Helmut Schaffrath.
**kern	**text
*ICvox	*
*M2/4	*
*k[f#]	*
*G:	*
!LO:TX:a:t=Aus dem Elſaß.	!
{8dd	Es
=1	=1
8g	dun-
8d	-kelt
8g	in
8a	dem
=2	=2
8.bL	Wal-
16ccJ	.
16ddL	-de,
16ccJ}	.
{16bL	laß
16ddJ	.
=3	=3
8gg	uns
8dd	nach
8cc/	Hau-
8b/	-ſe
=4	=4
4a	gehn;
8r}	.
{8dd	wir
=5	=5
8ee	wol-
16dd	-len
16dd	das
8ee	Korn
8ff#	ab-
=6	=6
(8ggL	-ſchnei-
16ff#	.
16eeJ)	.
8dd}	-den,
{8cc	wenn
=7	=7
8b/	wir
8b/	den
(16ddL	Som-
16ccJ)	.
(16bL	-mer
16aJ)	.
=8	=8
4g	ſehn!
8r}	.
==	==
!!!AGN: Romanze, Ballade
!!!ONB: ESAC (Essen Associative Code) Database: ZUCCAL
!!!AMT: simple duple
!!!AIN: vox
!!!EED: Helmut Schaffrath
!!!EEV: 1.0
!!@@COMMENT:"In original two voices"
!!@@END:
!!!GTL: II. Gau- Leuschen.
!!!URL-scan: https://www.digitale-sammlungen.de/de/view/bsb11160573?page=103
!!!ENC: Anna Maria Matuszewska
!!!EEV: 2025/03/02
*-	*-
